X: 17706
T: Holywell
R: hornpipe
M: 4/4
K: Gmajor
Bc|d2 dg edcB|dgfg edcB|DGBG DGBG|DGBd cBAG|
d2 dg edcB|dgfg edcB|g>abg ecAF|G2 G2 G2:|
Bc|d2 de dBGB|c2 e2 e2 z2|cBcd cAFD|dgfa g2 g2|
dBdg eceg|fdfa gfga|bgbg ecAF|G2 G2 G2:|

